X: 113
M: C|
L: 1/8
K: G
V: 1
c |\
dgba gddg | aAag eaab | gbag fedc | BAGF Eeeg |
dgba gddg | aAag eaab | gbag fedc | BgdB GBd |]
V: 2 clef=bass middle=d
z |\
g2g2 b2g2 | a2a2  c'2d'c'| b2B2 c2A2 | B2B2 e2E2 |
g2g2 b2g2 | a2a2  a2d2   | g2B2 c2d2 | g2G2 g3  || z |
g2f2 g2b2 | c'2c2 c'2d'2 | b2B2 c2A2 | B2B2 e2E2 |
g2f2 g2b2 | c'2c2 c'2d'2 | b2B2 c2d2 | g2G2 g2z |]


